images/NBU.svg

<svg height="250" viewBox="0 0 250 250" width="250" xmlns="http://www.w3.org/2000/svg"><path d="m250 125c0 69.035156-55.964844 125-125 125s-125-55.964844-125-125 55.964844-125 125-125 125 55.964844 125 125zm0 0" fill="#fff"/><path d="m129.011719 94.617188c10.449219 0 18.472656 3.472656 24.0625 10.417968 5.589843 6.824219 8.382812 16.75 8.382812 29.789063v43.128906h-17.5v-43.128906c0-8.164063-1.394531-14.195313-4.191406-18.09375-2.796875-4.019531-7.472656-6.03125-14.035156-6.03125-5.46875 0-10.148438 2.316406-14.039063 6.945312-3.765625 4.507813-5.648437 10.476563-5.648437 17.910157v42.398437h-17.5v-81.875h17.5v10.234375c1.578125-3.042969 4.375-5.726562 8.382812-8.039062 4.011719-2.4375 8.871094-3.65625 14.585938-3.65625zm0 0" fill="#111"/><path d="m88.542969 65.105469h72.914062v17.359375h-72.914062zm0 0" fill="#ff001f"/></svg>

<svg xmlns="http://www.w3.org/2000/svg" xmlns:xlink="http://www.w3.org/1999/xlink" width="250px" height="250px" viewBox="0 0 250 250" version="1.1">
<g id="surface1">
<path style=" stroke:none;fill-rule:nonzero;fill:rgb(100%,100%,100%);fill-opacity:1;" d="M 250 125 C 250 194.035156 194.035156 250 125 250 C 55.964844 250 0 194.035156 0 125 C 0 55.964844 55.964844 0 125 0 C 194.035156 0 250 55.964844 250 125 Z M 250 125 "/>
<path style=" stroke:none;fill-rule:nonzero;fill:rgb(6.666667%,6.666667%,6.666667%);fill-opacity:1;" d="M 129.011719 94.617188 C 139.460938 94.617188 147.484375 98.089844 153.074219 105.035156 C 158.664062 111.859375 161.457031 121.785156 161.457031 134.824219 L 161.457031 177.953125 L 143.957031 177.953125 L 143.957031 134.824219 C 143.957031 126.660156 142.5625 120.628906 139.765625 116.730469 C 136.96875 112.710938 132.292969 110.699219 125.730469 110.699219 C 120.261719 110.699219 115.582031 113.015625 111.691406 117.644531 C 107.925781 122.152344 106.042969 128.121094 106.042969 135.554688 L 106.042969 177.953125 L 88.542969 177.953125 L 88.542969 96.078125 L 106.042969 96.078125 L 106.042969 106.3125 C 107.621094 103.269531 110.417969 100.585938 114.425781 98.273438 C 118.4375 95.835938 123.296875 94.617188 129.011719 94.617188 Z M 129.011719 94.617188 "/>
<path style=" stroke:none;fill-rule:nonzero;fill:rgb(100%,0%,12.156863%);fill-opacity:1;" d="M 88.542969 65.105469 L 161.457031 65.105469 L 161.457031 82.464844 L 88.542969 82.464844 Z M 88.542969 65.105469 "/>
</g>
</svg>
